!!!OTL: 166. Freylekhs
!!!Genre:	Freylekhs
!!!Mode:	Major
!!!Listening/dance:	dance
!!!:	*g:
!!!One_Mode:	no
**kern
*I"P1
*clefG2
*k[f#]
*G:
*M2/4
*>A
!LO:TX:a:i:t=G-major
8dd
=1
16ddLL
16ddJ
8bJ
8aL
8gJ
=2
8a
(8qcc/
4b)
8dd
=3
16ddLL
16ccJ
8bJ
8aL
8bJ
*>A1
=4
16aLL
16aJJ
4g
*>A2
=5:|!
16aLL
16bJ
8gJ
8r
*>B
8d
=6||
*k[b-e-]
*>bM
*g:
!LO:TX:a:i:t=G-minor
4g
4g
=7
8gL
8a
8b-
8ccJ
=8
(32dd^LLL
32ee-JJ
8.ddJ)
(32dd^LLL
32ee-JJ
8.ddJ)
=9
(32dd^LLL
32ee-JJ
8.ddJ)
(32dd^LLL
32ee-JJ
8.ddJ)
=10
8b-L
8a
8g
8b-J
=11
8aL
8g
8f#X
8aJ
=12
8g
[4.d
=13
8d]
8r
*>C
4d
=14||
4g
4g
=15
8gL
8a
8b-
8ccJ
=16
4dd
4dd
=17
4dd
4dd
*>eM
*>bM
*g:dor
!LO:TX:a:i:t=G-dorian
=18
8ffL
8een
8dd
8ffJ
=19
8eenL
8dd
8cc#X
(8qff/
8eeJ)
=20
[2dd
=21
8dd]
8r
8r
*>eM
==
*-
